!!!!SEGMENT: pl-wnifc--13846--077_anonim--77-ja-wpustynia-jechac-musze.krn
!!!cenid: 18xx:3299
!!!COM: Anonim
!!!COM-rismid: pe30004985
!!!CDT:
!!!CNT:
!!!OTL: 77. Ja wpustynią jechać muszę
!!!PDT: 1833
!!!AGN:
!!!SMS-siglum: PL-Wnifc
!!!SMS-shelfmark: 13846
!!!SMS-shelfwork: 077 W
!!!NIFC-rismid: 1001037252
!!!URL-scan: http://repozytorium.nifc.pl/skany/pl-wnifc-nut--13846
!!!ONB-nifc:
!!!key: G
**kern	**kern	**kern	**text
*group2	*group2	*group1	*
*part2	*part2	*part1	*part1
*staff3	*staff2	*staff1	*staff1
*I"[Piano]	*I"[Piano]	*I"[Soprano]	*
*Ipiano	*Ipiano	*Isoprn	*
*ICklav	*ICklav	*ICvox	*
*IGacmp	*IGacmp	*IGsolo	*
*clefF4	*clefG2	*clefG2	*
*k[f#]	*k[f#]	*k[f#]	*
*G:	*G:	*G:	*
*M4/4	*M4/4	*M4/4	*
*met(c)	*met(c)	*met(c)	*
!	!	!LO:TX:b:B:rj:t=E.35.	!
!	!	!LO:TX:a:B:t=Andante	!
4r	8B/L 8g/	8g/	Ja
.	8g/J 8b/	8b/	w pu-
=1	=1	=1	=1
*^	*	*	*
4r	1GG	4b\ 4dd\	4dd\	-sty-
4G/	.	4b\ 4dd\	4dd\	-ni&#261;
4G/	.	(>\8bL 8dd\	(>8dd\L	je-
.	.	8g\ 8b\	8b\	.
4G/	.	8a\) 8cc\	8cc\J)	.
.	.	8b\J 8dd\	8dd\	-cha&#263;
!!LO:LB:g=original
=2	=2	=2	=2	=2
4C/ 4G/	4C	4cc\ 4ee\	4ee\	mu-
4GG/ 4G/	4GG	4b\ 4dd\	4dd\	-sz&#281;,
4r;>	2ryy	4r;>	4r;>	.
4r	.	8e\L 8g\ 8cc\	8cc\	od
.	.	8g\J 8b\ 8dd\	8dd\	prze-
*v	*v	*	*	*
=3	=3	=3	=3
4C\ 4G\	4g\ 4cc\ 4ee\	4ee\	-&#347;li-
4C\ 4G\	4cc\ 4ee\	4ee\	-cznych
4C\ 4G\	(>\8ccL 8ee\	(>8ee\L	.
.	8ee\ 8gg\	8gg\	tych
4C\ 4G\	8dd\ 8ff#\	8ff#\J)	.
.	8cc\J) 8ee\	8ee\	tu
=4	=4	=4	=4
2GG/ 2G/	2b\ 2dd\	2dd\	miesc
4r	4r	4r	.
!!LO:LB:g=original
==	==	==	==
4r	8g\L 8b\	8b\	o
.	8b\J 8dd\	8dd\	jak
=5	=5	=5	=5
2DD/ 2D/	4.a\ 4.cc\	4.cc\	tra-
.	8f#/ 8a/	8a/	-pi
2GG/ 2D/	8g/L 8b/	(</8bL	.
.	8B/ 8g/	8g/	mo-
.	8b/ 8dd/	8dd/J)	.
.	8g/J 8b/	8b\	-j&#281;
=6	=6	=6	=6
*^	*	*	*
2D	2D	(<4g/ 4b/	4b/	du-
.	.	4f#/) 4a/	4a/	-sz&#281;
*v	*v	*	*	*
2r;>	2r;>	2r;>	.
!!LO:LB:g=original
=7	=7	=7	=7
(</2GG	(>\8bL 8gg\	(>\8ggL	wiel-
.	8ff#\	8ff#\	.
.	8gg\)	8gg\)	-ka
!	!LO:TX:a:t=|:problem	!LO:TX:a:t=|:problem	!
.	8cc\J 8ee\	8ee\J	.
4GG/)	(>\8bL 8dd\	(>\8ddL	go-
.	8b\ 8gg\	8gg\	.
4C/	8cc\) 8ee\	8ee\)	-rycz
!	!LO:TX:a:t=|:problem	!LO:TX:a:t=|:problem	!
.	8a\J 8cc\	8cc\J	.
=8	=8	=8	=8
*^	*	*	*
*	*^	*	*	*
!	!	!LO:TX:t=P:problem:note position	!	!	!
(>4D/ 4d/	2D\	2D/	4b/	4b/	tru-
4F#/) 4c/	.	.	4a/	4a/	-dno
4G/ 4B/	4G\	4ryy	4g/	4g/	znie&#347;&#263;.
*v	*v	*v	*	*	*
==	==	==	==
*-	*-	*-	*-
!!!system-decoration: g1,[{g2}]
!!!EED: Jędrzej Mróz
!!!ESR: 2021-11-11
!!!RDF**kern: > = above
!!!RDF**kern: < = below
